X:50
T:Hilland Dance, A
M:9/4
L:1/4
Q:3/4=85
S:D.Wright, Extraordinary Collection, London 1713
Z:Pete Stewart, 2004 <www.hornpipemusic.co.uk>
K:D
d3A2GFDD | ECCDB,B,CA,A, |
D>EF/D/E>FG/E/FAF | B/A/B/cdFDDD3 ||
A | d>fg/a/d>fg/a/ecA | afbafdecA |
d/e/f/g/ad/e/f/g/ab/a/g/f/e | dfgcaAd2 ||
FD/E/FFD/E/FECA | FD/E/FFD/E/FGEG |
cA/B/c/A/ c A/B/cdag | f/e/f/g/afgaf2d |]

